X:1
T:Wilbraham, LM
T:Wilbraham, LM
T:Lowell Mason, 1844
T:Public Domain Courtesy of the Cyber Hymnal™
C:Lowell Mason, 1844
Z:Public Domain
Z:Courtesy of the Cyber Hymnal™
%%score ( 1 2 ) 3 4 5
L:1/8
M:3/4
K:A
V:1 treble 
V:2 treble 
V:3 treble 
V:4 treble-8 
V:5 bass 
V:1
 A2 A2 G2 | A4 A2 | A4 G2 | A4 c2 | d4 c2 | B4 B2 | (A2 G2) F2 | G4 E2 | [ce]4 [Bd]2 | %9
 [Ac]4 e2 x6 | d4 [Ac]2 | ([Ac]2 [GB]2) E2 | c4 B2 | (A2 G2) A2 | (d2 c2) B2 | c6 |] x6 |] %17
V:2
 x6 | x6 | x6 | x6 | x6 | x6 | x6 | x6 | x6 | x4 (AE) x6 | (F2 G2) x2 | x6 | x6 | x6 | x6 | x6 |] %16
 x6 |] %17
V:3
 C2 E2 D2 | C4 E2 | (F2 E2) D2 | C4 E2 | E4 E2 | E4 B,2 | (C2 B,2) B,2 | B,4 z2 | x6 | z6 x6 | z6 | %11
 z6 | z4 E2 | E4 E2 | (E2 D2) C2 | (F2 E2) C2 |] E6 |] %17
V:4
 A2 c2 B2 | A4 e2 | (d2 c2) B2 | A4 A2 | G4 A2 | B4 E2 | (F2 E2) ^D2 | E4 z2 | z6 | z6 x6 | z6 | %11
 z4 E2 | e4 d2 | (c2 B2) A2 | (B2 A2) G2 | A6 |] x6 |] %17
V:5
 A,2 A,2 E,2 | F,4 C,2 | (D,2 E,2) E,2 | A,,4 A,2 | B,4 A,2 | G,4 G,,2 | (A,,2 B,,2) B,,2 | %7
 E,4 E,2 | E,4 E,2 | A,,4 C,2 B,,4 A,,2 | E,4 E,2 | E,4 E,2 | (A,2 E,2) F,2 | (D,2 E,2) E,2 | %14
 A,,6 | x6 |] x6 |] %17

